X: 35768
T: Sally Gally
R: jig
M: 6/8
K: Gmajor
|:e3 edB|A3 AGA|B2d d2B|G3 GAB|
c3 B2A|G2E D3|DGG GAB|A3 ABd|
Bee edB|A3 AGA|B2d d2B|E3 EGA|
BAB d2B|A2G B2D|DED DBA|G3 GBd:|
|:e3 efg|e2d B2e|d2e dBd-|d3 dBd|
e3 efg|e2d B3|G3 GAB|A3 AGA|
B2d d2B|A3 AGA|B2d d2B|E3 EGA|
BAB d2B|A2G B2D|DED DBA|G3 GBd:|

